pix_core/a/create_folder.svg

<svg preserveAspectRatio="xMinYMid meet" viewBox="0 0 512 512" xmlns="http://www.w3.org/2000/svg"><path d="m512 416c0 35.3-28.7 64-64 64h-384c-35.3 0-64-28.7-64-64v-320c0-35.3 28.7-64 64-64h128c20.1 0 39.1 9.5 51.2 25.6l19.2 25.6c6 8.1 15.5 12.8 25.6 12.8h160c35.3 0 64 28.7 64 64zm-280-40c0 13.3 10.7 24 24 24s24-10.7 24-24v-64h64c13.3 0 24-10.7 24-24s-10.7-24-24-24h-64v-64c0-13.3-10.7-24-24-24s-24 10.7-24 24v64h-64c-13.3 0-24 10.7-24 24s10.7 24 24 24h64z" fill="#fff"/></svg>

<svg xmlns="http://www.w3.org/2000/svg" viewBox="0 0 512 512" preserveAspectRatio="xMinYMid meet"><path fill="#fff" d="M512 416c0 35.3-28.7 64-64 64H64c-35.3 0-64-28.7-64-64V96C0 60.7 28.7 32 64 32H192c20.1 0 39.1 9.5 51.2 25.6l19.2 25.6c6 8.1 15.5 12.8 25.6 12.8H448c35.3 0 64 28.7 64 64V416zM232 376c0 13.3 10.7 24 24 24s24-10.7 24-24V312h64c13.3 0 24-10.7 24-24s-10.7-24-24-24H280V200c0-13.3-10.7-24-24-24s-24 10.7-24 24v64H168c-13.3 0-24 10.7-24 24s10.7 24 24 24h64v64z"/></svg>
